src/assets/circle-fail.svg

<svg fill="none" viewBox="0 0 16 17" xmlns="http://www.w3.org/2000/svg"><path d="m8 .286133c-4.408 0-8 3.591997-8 7.999997 0 4.40797 3.592 7.99997 8 7.99997s8-3.592 8-7.99997c0-4.408-3.592-7.999997-8-7.999997zm2.688 9.839967c.232.232.232.616 0 .848-.12.12-.272.176-.424.176s-.304-.056-.424-.176l-1.84-1.83997-1.84 1.83997c-.12.12-.272.176-.424.176s-.304-.056-.424-.176c-.232-.232-.232-.616 0-.848l1.84-1.83997-1.84-1.84c-.232-.232-.232-.616 0-.848s.616-.232.848 0l1.84 1.84 1.84-1.84c.232-.232.616-.232.848 0s.232.616 0 .848l-1.84 1.84z" fill="#ff3545"/></svg>

<svg viewBox="0 0 16 17" fill="none" xmlns="http://www.w3.org/2000/svg">
    <path d="M8 0.286133C3.592 0.286133 0 3.87813 0 8.28613C0 12.6941 3.592 16.2861 8 16.2861C12.408 16.2861 16 12.6941 16 8.28613C16 3.87813 12.408 0.286133 8 0.286133ZM10.688 10.1261C10.92 10.3581 10.92 10.7421 10.688 10.9741C10.568 11.0941 10.416 11.1501 10.264 11.1501C10.112 11.1501 9.96 11.0941 9.84 10.9741L8 9.13413L6.16 10.9741C6.04 11.0941 5.888 11.1501 5.736 11.1501C5.584 11.1501 5.432 11.0941 5.312 10.9741C5.08 10.7421 5.08 10.3581 5.312 10.1261L7.152 8.28613L5.312 6.44613C5.08 6.21413 5.08 5.83013 5.312 5.59813C5.544 5.36613 5.928 5.36613 6.16 5.59813L8 7.43813L9.84 5.59813C10.072 5.36613 10.456 5.36613 10.688 5.59813C10.92 5.83013 10.92 6.21413 10.688 6.44613L8.848 8.28613L10.688 10.1261Z" fill="#FF3545"/>
</svg>
